X:30
T:Rose in the Heather
R:jig
M:6/8
S:John Winston
K:D
F3 EFE | DFA BAF | ABd ede | fdB AFE |
F3 EFE | DFA BAF | ABd AFE | FDD D3 :|
|: fdB ABd | f2a afd | g3 fed | Bee efg |
fdB ABd | f2a afa | baf afe | fdc d3 :|

